src/lib/packages/icons/src/assets/filled/steak.svg

<svg xmlns="http://www.w3.org/2000/svg" width="24" height="24" fill="none"><path fill="currentColor" d="M8 21.75c-1.99 0-5.75-.99-5.75-4.75 0-1.73 1.09-2.68 2.04-3.5 1.05-.91 1.96-1.69 1.96-3.5 0-4.42 3.33-7.75 7.75-7.75 4.71 0 7.75 3.24 7.75 8.25S18.15 21.75 8 21.75Zm6-18c-3.56 0-6.25 2.69-6.25 6.25 0 2.49-1.37 3.67-2.47 4.63-.97.84-1.53 1.37-1.53 2.37 0 3.21 4.08 3.25 4.25 3.25 11.66 0 12.25-8.12 12.25-9.75 0-4.98-3.23-6.75-6.25-6.75ZM14 6c-2.36 0-4 1.65-4 4 0 3.51-1.43 4.33-2.64 5.39-.28.24-1.11.85-.86 1.78.23.86 1.22.97 1.54.97 8.97 0 9.96-5.88 9.96-7.64C18 6.78 15.83 6 14 6Zm.02 5.25a1.25 1.25 0 1 1 0-2.5 1.25 1.25 0 0 1 0 2.5Z"/></svg>

<svg width="24" height="24" viewBox="0 0 24 24" fill="none" xmlns="http://www.w3.org/2000/svg">
<path d="M8 21.75C6.01 21.75 2.25 20.76 2.25 17C2.25 15.27 3.33998 14.32 4.28998 13.5C5.33998 12.59 6.25 11.81 6.25 10C6.25 5.58 9.58 2.25 14 2.25C18.71 2.25 21.75 5.49 21.75 10.5C21.75 15.51 18.15 21.75 8 21.75ZM14 3.75C10.44 3.75 7.75 6.44 7.75 10C7.75 12.49 6.38003 13.67 5.28003 14.63C4.31003 15.47 3.75 16 3.75 17C3.75 20.21 7.83 20.25 8 20.25C19.66 20.25 20.25 12.13 20.25 10.5C20.25 5.52 17.02 3.75 14 3.75ZM14 6C11.64 6 10 7.65 10 10C10 13.51 8.56999 14.33 7.35999 15.39C7.07999 15.63 6.25 16.24 6.5 17.17C6.73 18.03 7.71998 18.14 8.03998 18.14C17.01 18.14 18 12.26 18 10.5C18 6.78 15.83 6 14 6ZM14.02 11.25C13.33 11.25 12.77 10.69 12.77 10C12.77 9.31 13.32 8.75 14.02 8.75C14.71 8.75 15.27 9.31 15.27 10C15.27 10.69 14.71 11.25 14.02 11.25Z" fill="currentColor"/>
</svg>
